X: 7898
T: Con Cassidy's Highland
R: hornpipe
M: 4/4
K: Adorian
|:g/f>g|"Am"e<A B>A "G"G>AB>d|"Am"e<A "G"B>G "Am"A>gf>g|
e<A B>A "G"G>AB>d|1 "F"(3ege "G"(3dcB "Am"A2:|2 "F"(3ege "G"(3dcB "Am"A>Bc>d||
"Am"e<a a>g a>fg>e|"G"d>BG>A B<G B>d|"C"(3efg f>a "D"g>fg>d|"Em"(3ege (3dcB "Am"A>Bc>d|
"Am"e<a a>g a>fg>e|"G"d>BG>A B<G B>d|"C"(3efg f>a "D"g>fg>d|"Em"(3ege (3dcB "Am"A2||

